X: 1
T: Polska efter Olof R\"onnqvist
O: Uppt. & arr. Alfred R\"onnqvist
R: polska, mazurka
Z: 2009 John Chambers <jc:trillian.mit.edu>
S: printed MS of unknown origin
M: 3/4
L: 1/8
K: G
V: 1
d \
|: d>c B2 g2 | d>B G3 B | A>F DF Ac |1,3 {Bc}BA/B/ GA Bc :|2,4 {Bc}BA/B/ "fine"G3 :|
K: D
|: z \
| A>B AG (3A(Bc) | d>e f2 f2 | g>f ed eg | (3f(ef) (3a(fe) d2 |
| A>B AG (3A(Bc) | d>e f2 f2 | g>f ed eg | (3f(ef) d3 :|
V: 2
B \
|: [BD]>[AD] G2 [B2D2] | B>G [D3B,3] G | F>D A,D FA |1,3 GF/G/ DF GA :|2,4 GD "fine"[D3B,3] :|
K: D
|: z \
| F>G FE (3F(GA) | [AF]>[AE] [A2D2] [A2D2] | e>d cB ce | (3d(cd) (3f(dc) [A2F2] |
| F>G FE (3F(GA) | [BD]>c [d2F2] [d2F2] | e>d cB ce | (3d(AF) [A3D3] :|
